;FLAVOR:RepRap
;TIME:972
;Filament used: 0.948382m
;Layer height: 0.2
;Generated with Cura_SteamEngine 2.5.0-ExternalProfiles
M190 S60
M104 S210
M109 S210
G28 ;Home
G1 Z15.0 F6000 ;Move the platform down 15mm
;Prime the extruder
G92 E0
G1 F200 E3
G92 E0
;LAYER_COUNT:125
;LAYER:0
M107
G0 F3900 X77.263 Y79.594 Z0.2
;TYPE:SKIRT
G1 F1800 X77.709 Y79.27 E0.01834
G1 X78.197 Y79.015 E0.03665
G1 X78.717 Y78.832 E0.05498
G1 X79.258 Y78.727 E0.07331
G1 X79.712 Y78.7 E0.08844
G1 X84.218 Y78.701 E0.23831
G1 X84.767 Y78.741 E0.25662
G1 X85.074 Y78.799 E0.26701
G1 X85.938 Y78.999 E0.29651
G1 X86.464 Y79.162 E0.31482
G1 X87.1 Y79.481 E0.33849
G1 X87.478 Y79.718 E0.35333
G1 X87.908 Y80.033 E0.37105
G1 X87.95 Y79.978 E0.37336
G1 X88.345 Y79.594 E0.39168
G1 X88.791 Y79.27 E0.41001
G1 X89.279 Y79.015 E0.42833
G1 X89.799 Y78.832 E0.44666
G1 X90.34 Y78.727 E0.46499
G1 X90.794 Y78.7 E0.48012
G1 X95.3 Y78.701 E0.62999
G1 X95.849 Y78.741 E0.6483
G1 X96.155 Y78.799 E0.65866
G1 X97.02 Y78.999 E0.68819
G1 X97.546 Y79.161 E0.70649
G1 X98.183 Y79.481 E0.7302
G1 X98.561 Y79.718 E0.74504
G1 X99.005 Y80.044 E0.76336
G1 X99.229 Y80.251 E0.7735
G1 X99.543 Y80.565 E0.78827
G1 X99.903 Y80.982 E0.8066
G1 X100.28 Y81.604 E0.83079
G1 X100.667 Y82.408 E0.86047
G1 X100.869 Y82.92 E0.87877
G1 X101.019 Y83.632 E0.90297
G1 X101.069 Y84.077 E0.91787
G1 X101.093 Y84.518 E0.93256
G1 X101.043 Y95.961 E1.31316
G1 X101.001 Y96.51 E1.33147
G1 X100.879 Y97.047 E1.34979
G1 X100.667 Y97.592 E1.36924
G1 X100.28 Y98.396 E1.39891
G1 X100.006 Y98.874 E1.41724
G1 X99.543 Y99.435 E1.44143
G1 X99.229 Y99.749 E1.4562
G1 X98.812 Y100.109 E1.47452
G1 X98.188 Y100.487 E1.49879
G1 X97.385 Y100.873 E1.52842
G1 X96.873 Y101.075 E1.54673
G1 X96.336 Y101.201 E1.56508
G1 X95.779 Y101.248 E1.58367
G1 X90.833 Y101.3 E1.74818
G1 X90.283 Y101.266 E1.76651
G1 X89.744 Y101.152 E1.78483
G1 X89.227 Y100.962 E1.80315
G1 X88.742 Y100.699 E1.8215
G1 X88.301 Y100.369 E1.83982
G1 X87.913 Y99.979 E1.85812
G1 X87.9 Y99.961 E1.85886
G1 X87.729 Y100.109 E1.86638
G1 X87.105 Y100.487 E1.89065
G1 X86.302 Y100.873 E1.92028
G1 X85.79 Y101.075 E1.93859
G1 X85.253 Y101.201 E1.95693
G1 X84.696 Y101.248 E1.97552
G1 X79.751 Y101.3 E2.14
G1 X79.201 Y101.266 E2.15833
G1 X78.662 Y101.152 E2.17665
G1 X78.145 Y100.962 E2.19497
G1 X77.66 Y100.699 E2.21333
G1 X77.219 Y100.369 E2.23164
G1 X76.831 Y99.979 E2.24994
G1 X76.502 Y99.536 E2.2683
G1 X76.242 Y99.051 E2.2866
G1 X76.054 Y98.532 E2.30496
G1 X75.943 Y97.993 E2.32326
G1 X75.911 Y97.5 E2.33969
G1 X75.911 Y92.5 E2.50599
G1 X75.951 Y91.95 E2.52434
G1 X76.07 Y91.412 E2.54266
G1 X76.266 Y90.897 E2.56099
G1 X76.534 Y90.416 E2.5793
G1 X76.853 Y89.998 E2.59679
G1 X76.805 Y89.948 E2.5991
G1 X76.481 Y89.502 E2.61743
G1 X76.226 Y89.014 E2.63575
G1 X76.043 Y88.494 E2.65408
G1 X75.938 Y87.953 E2.67241
G1 X75.911 Y87.5 E2.6875
G1 X75.911 Y82.5 E2.8538
G1 X75.951 Y81.95 E2.87215
G1 X76.07 Y81.412 E2.89047
G1 X76.266 Y80.897 E2.9088
G1 X76.534 Y80.416 E2.92711
G1 X76.868 Y79.978 E2.94543
G1 X77.263 Y79.594 E2.96376
G0 F3900 X77.653 Y79.794
G1 F1800 X78.091 Y79.511 E2.9811
G1 X78.566 Y79.298 E2.99841
G1 X79.069 Y79.161 E3.01575
G1 X79.712 Y79.1 E3.03724
G1 X84.218 Y79.101 E3.18711
G1 X84.984 Y79.189 E3.21275
G1 X85.848 Y79.389 E3.24225
G1 X86.345 Y79.545 E3.25957
G1 X86.887 Y79.82 E3.27979
G1 X87.265 Y80.057 E3.29463
G1 X87.863 Y80.534 E3.32007
G1 X87.96 Y80.631 E3.32463
G1 X88.013 Y80.542 E3.32808
G1 X88.345 Y80.14 E3.34542
G1 X88.735 Y79.794 E3.36276
G1 X89.173 Y79.511 E3.3801
G1 X89.648 Y79.298 E3.39742
G1 X90.151 Y79.161 E3.41476
G1 X90.794 Y79.1 E3.43624
G1 X95.3 Y79.101 E3.58611
G1 X96.065 Y79.188 E3.61172
G1 X96.93 Y79.388 E3.64125
G1 X97.427 Y79.544 E3.65857
G1 X97.97 Y79.82 E3.67883
G1 X98.348 Y80.057 E3.69367
G1 X98.946 Y80.534 E3.71911
G1 X99.26 Y80.848 E3.73388
G1 X99.599 Y81.244 E3.75122
G1 X99.92 Y81.777 E3.77191
G1 X100.307 Y82.581 E3.80159
G1 X100.496 Y83.067 E3.81894
G1 X100.622 Y83.676 E3.83962
G1 X100.672 Y84.121 E3.85451
G1 X100.693 Y84.516 E3.86767
G1 X100.643 Y95.959 E4.24827
G1 X100.601 Y96.478 E4.26559
G1 X100.48 Y96.985 E4.28292
G1 X100.307 Y97.419 E4.29846
G1 X99.92 Y98.223 E4.32814
G1 X99.658 Y98.674 E4.34549
G1 X99.26 Y99.152 E4.36618
G1 X98.946 Y99.466 E4.38095
G1 X98.55 Y99.805 E4.39828
G1 X98.015 Y100.126 E4.41904
G1 X97.212 Y100.512 E4.44867
G1 X96.726 Y100.701 E4.46601
G1 X96.218 Y100.814 E4.48332
G1 X95.775 Y100.848 E4.4981
G1 X90.829 Y100.9 E4.66261
G1 X90.309 Y100.865 E4.67995
G1 X89.8 Y100.752 E4.69729
G1 X89.315 Y100.562 E4.71461
G1 X88.864 Y100.3 E4.73196
G1 X88.459 Y99.972 E4.7493
G1 X88.109 Y99.587 E4.7666
G1 X87.963 Y99.366 E4.77541
G1 X87.863 Y99.466 E4.78011
G1 X87.467 Y99.805 E4.79745
G1 X86.932 Y100.126 E4.8182
G1 X86.129 Y100.512 E4.84784
G1 X85.643 Y100.701 E4.86518
G1 X85.135 Y100.814 E4.88249
G1 X84.692 Y100.848 E4.89727
G1 X79.747 Y100.9 E5.06175
G1 X79.227 Y100.865 E5.07908
G1 X78.718 Y100.752 E5.09642
G1 X78.233 Y100.562 E5.11375
G1 X77.782 Y100.3 E5.1311
G1 X77.377 Y99.972 E5.14843
G1 X77.027 Y99.587 E5.16574
G1 X76.739 Y99.152 E5.18309
G1 X76.522 Y98.678 E5.20043
G1 X76.379 Y98.177 E5.21776
G1 X76.311 Y97.5 E5.24039
G1 X76.311 Y92.5 E5.40669
G1 X76.351 Y91.98 E5.42403
G1 X76.47 Y91.473 E5.44135
G1 X76.665 Y90.99 E5.45868
G1 X76.931 Y90.542 E5.47601
G1 X77.263 Y90.14 E5.49335
G1 X77.418 Y90.003 E5.50023
G1 X77.351 Y89.948 E5.50311
G1 X77.005 Y89.558 E5.52045
G1 X76.722 Y89.12 E5.5378
G1 X76.509 Y88.645 E5.55511
G1 X76.372 Y88.142 E5.57245
G1 X76.311 Y87.5 E5.5939
G1 X76.311 Y82.5 E5.7602
G1 X76.351 Y81.98 E5.77755
G1 X76.47 Y81.473 E5.79487
G1 X76.665 Y80.99 E5.81219
G1 X76.931 Y80.542 E5.82952
G1 X77.263 Y80.14 E5.84686
G1 X77.653 Y79.794 E5.8642
G0 F3900 X78.04 Y80.008
G1 F1800 X78.468 Y79.77 E5.88049
G1 X78.928 Y79.604 E5.89676
G1 X79.409 Y79.515 E5.91303
G1 X79.712 Y79.5 E5.92312
G1 X84.218 Y79.501 E6.07299
G1 X84.894 Y79.578 E6.09562
G1 X85.758 Y79.778 E6.12511
G1 X86.224 Y79.927 E6.14139
G1 X86.675 Y80.159 E6.15825
G1 X87.053 Y80.396 E6.17309
G1 X87.58 Y80.817 E6.19553
G1 X87.894 Y81.131 E6.2103
G1 X88.045 Y81.321 E6.21837
G1 X88.146 Y81.088 E6.22682
G1 X88.411 Y80.676 E6.24311
G1 X88.739 Y80.313 E6.25938
G1 X89.122 Y80.008 E6.27566
G1 X89.55 Y79.77 E6.29195
G1 X90.01 Y79.604 E6.30822
G1 X90.491 Y79.515 E6.32449
G1 X90.794 Y79.5 E6.33458
G1 X95.3 Y79.501 E6.48445
G1 X95.975 Y79.578 E6.50704
G1 X96.84 Y79.778 E6.53657
G1 X97.306 Y79.927 E6.55285
G1 X97.758 Y80.159 E6.56974
G1 X98.136 Y80.396 E6.58458
G1 X98.663 Y80.817 E6.60702
G1 X98.977 Y81.131 E6.62179
G1 X99.294 Y81.504 E6.63807
G1 X99.559 Y81.951 E6.65535
G1 X99.946 Y82.755 E6.68503
G1 X100.122 Y83.212 E6.70132
G1 X100.224 Y83.721 E6.71858
G1 X100.274 Y84.166 E6.73348
G1 X100.293 Y84.514 E6.74507
G1 X100.243 Y95.957 E7.12567
G1 X100.201 Y96.445 E7.14196
G1 X100.08 Y96.919 E7.15823
G1 X99.946 Y97.245 E7.16995
G1 X99.559 Y98.049 E7.19963
G1 X99.312 Y98.471 E7.21589
G1 X98.977 Y98.869 E7.2332
G1 X98.663 Y99.183 E7.24797
G1 X98.29 Y99.5 E7.26425
G1 X97.842 Y99.766 E7.28158
G1 X97.039 Y100.152 E7.31121
G1 X96.582 Y100.327 E7.32749
G1 X96.102 Y100.426 E7.34379
G1 X95.771 Y100.448 E7.35482
G1 X90.825 Y100.5 E7.51933
G1 X90.336 Y100.465 E7.53564
G1 X89.86 Y100.351 E7.55192
G1 X89.409 Y100.162 E7.56818
G1 X88.995 Y99.901 E7.58446
G1 X88.628 Y99.577 E7.60074
G1 X88.319 Y99.197 E7.61703
G1 X88.076 Y98.772 E7.63332
G1 X88.045 Y98.689 E7.63626
G1 X87.894 Y98.869 E7.64408
G1 X87.58 Y99.183 E7.65885
G1 X87.207 Y99.5 E7.67513
G1 X86.759 Y99.766 E7.69246
G1 X85.956 Y100.152 E7.72209
G1 X85.499 Y100.327 E7.73837
G1 X85.019 Y100.426 E7.75467
G1 X84.688 Y100.448 E7.7657
G1 X79.743 Y100.5 E7.93018
G1 X79.254 Y100.465 E7.94649
G1 X78.778 Y100.351 E7.96277
G1 X78.327 Y100.162 E7.97903
G1 X77.913 Y99.901 E7.99531
G1 X77.546 Y99.577 E8.01159
G1 X77.237 Y99.197 E8.02788
G1 X76.994 Y98.772 E8.04417
G1 X76.823 Y98.313 E8.06046
G1 X76.73 Y97.833 E8.07672
G1 X76.711 Y97.5 E8.08781
G1 X76.711 Y92.5 E8.25411
G1 X76.751 Y92.012 E8.2704
G1 X76.87 Y91.537 E8.28669
G1 X77.064 Y91.088 E8.30295
G1 X77.329 Y90.676 E8.31925
G1 X77.657 Y90.313 E8.33552
G1 X78.04 Y90.008 E8.3518
G1 X78.063 Y89.995 E8.35268
G1 X77.887 Y89.882 E8.35964
G1 X77.524 Y89.554 E8.37591
G1 X77.219 Y89.171 E8.3922
G1 X76.981 Y88.743 E8.40848
G1 X76.815 Y88.283 E8.42475
G1 X76.726 Y87.802 E8.44102
G1 X76.711 Y87.5 E8.45108
G1 X76.711 Y82.5 E8.61738
G1 X76.751 Y82.012 E8.63366
G1 X76.87 Y81.537 E8.64995
G1 X77.064 Y81.088 E8.66622
G1 X77.329 Y80.676 E8.68251
G1 X77.657 Y80.313 E8.69878
G1 X78.04 Y80.008 E8.71507
G0 F3900 X78.424 Y80.241
G1 F1800 X78.838 Y80.051 E8.73022
G1 X79.279 Y79.936 E8.74537
G1 X79.712 Y79.9 E8.75983
G1 X84.218 Y79.901 E8.9097
G1 X84.803 Y79.968 E8.92928
G1 X85.667 Y80.168 E8.95878
G1 X86.101 Y80.309 E8.97395
G1 X86.462 Y80.498 E8.98751
G1 X86.84 Y80.735 E9.00235
G1 X87.297 Y81.1 E9.0218
G1 X87.611 Y81.414 E9.03657
G1 X87.976 Y81.871 E9.05602
G1 X88.213 Y82.249 E9.07086
G1 X88.215 Y82.253 E9.07101
G1 X88.233 Y82.046 E9.07792
G1 X88.351 Y81.606 E9.09307
G1 X88.545 Y81.194 E9.10822
G1 X88.808 Y80.821 E9.1234
G1 X89.131 Y80.5 E9.13854
G1 X89.506 Y80.241 E9.1537
G1 X89.92 Y80.051 E9.16885
G1 X90.361 Y79.936 E9.18401
G1 X90.794 Y79.9 E9.19846
G1 X95.3 Y79.901 E9.34833
G1 X95.885 Y79.968 E9.36792
G1 X96.75 Y80.168 E9.39745
G1 X97.183 Y80.309 E9.41259
G1 X97.545 Y80.498 E9.42617
G1 X97.923 Y80.735 E9.44101
G1 X98.38 Y81.1 E9.46047
G1 X98.694 Y81.414 E9.47524
G1 X98.987 Y81.763 E9.49039
G1 X99.199 Y82.124 E9.50432
G1 X99.586 Y82.928 E9.53399
G1 X99.747 Y83.355 E9.54917
G1 X99.827 Y83.766 E9.5631
G1 X99.877 Y84.211 E9.57799
G1 X99.893 Y84.512 E9.58802
G1 X99.843 Y95.955 E9.96862
G1 X99.801 Y96.409 E9.98378
G1 X99.681 Y96.848 E9.99892
G1 X99.586 Y97.072 E10.00701
G1 X99.199 Y97.876 E10.03669
G1 X98.966 Y98.267 E10.05183
G1 X98.694 Y98.586 E10.06577
G1 X98.38 Y98.9 E10.08054
G1 X98.031 Y99.193 E10.0957
G1 X97.668 Y99.405 E10.10968
G1 X96.865 Y99.791 E10.13931
G1 X96.439 Y99.952 E10.15446
G1 X95.766 Y100.048 E10.17707
G1 X90.82 Y100.1 E10.34158
G1 X90.366 Y100.065 E10.35673
G1 X89.925 Y99.951 E10.37188
G1 X89.51 Y99.762 E10.38705
G1 X89.135 Y99.503 E10.4022
G1 X88.811 Y99.183 E10.41735
G1 X88.548 Y98.811 E10.4325
G1 X88.353 Y98.399 E10.44766
G1 X88.234 Y97.959 E10.46282
G1 X88.209 Y97.681 E10.47211
G1 X88.116 Y97.875 E10.47926
G1 X87.884 Y98.266 E10.49438
G1 X87.611 Y98.586 E10.50837
G1 X87.297 Y98.9 E10.52314
G1 X86.948 Y99.193 E10.5383
G1 X86.585 Y99.405 E10.55228
G1 X85.782 Y99.791 E10.58192
G1 X85.356 Y99.952 E10.59706
G1 X84.683 Y100.048 E10.61967
G1 X79.738 Y100.1 E10.78415
G1 X79.284 Y100.065 E10.7993
G1 X78.843 Y99.951 E10.81445
G1 X78.428 Y99.762 E10.82962
G1 X78.053 Y99.503 E10.84477
G1 X77.729 Y99.183 E10.85992
G1 X77.466 Y98.811 E10.87507
G1 X77.271 Y98.399 E10.89023
G1 X77.152 Y97.959 E10.90539
G1 X77.111 Y97.5 E10.92072
G1 X77.111 Y92.5 E11.08702
G1 X77.151 Y92.046 E11.10218
G1 X77.269 Y91.606 E11.11733
G1 X77.463 Y91.194 E11.13248
G1 X77.726 Y90.821 E11.14766
G1 X78.049 Y90.5 E11.1628
G1 X78.424 Y90.241 E11.17796
G1 X78.61 Y90.156 E11.18476
G1 X78.61 Y89.845 E11.19511
G1 X78.405 Y89.748 E11.20265
G1 X78.032 Y89.485 E11.21783
G1 X77.711 Y89.162 E11.23298
G1 X77.452 Y88.787 E11.24813
G1 X77.262 Y88.373 E11.26328
G1 X77.147 Y87.932 E11.27844
G1 X77.111 Y87.5 E11.29286
G1 X77.111 Y82.5 E11.45916
G1 X77.151 Y82.046 E11.47432
G1 X77.269 Y81.606 E11.48947
G1 X77.463 Y81.194 E11.50462
G1 X77.726 Y80.821 E11.5198
G1 X78.049 Y80.5 E11.53494
G1 X78.424 Y80.241 E11.5501
G0 F3900 X78.438 Y80.706
G1 F1800 X78.801 Y80.497 E11.56403
G1 X79.198 Y80.361 E11.57799
G1 X79.711 Y80.3 E11.59517
G1 X84.217 Y80.301 E11.74504
G1 X84.713 Y80.358 E11.76165
G1 X85.577 Y80.558 E11.79115
G1 X85.975 Y80.691 E11.8051
G1 X86.25 Y80.837 E11.81546
G1 X86.628 Y81.074 E11.8303
G1 X87.015 Y81.382 E11.84675
G1 X87.329 Y81.696 E11.86152
G1 X87.637 Y82.083 E11.87797
G1 X87.874 Y82.461 E11.89281
G1 X88.086 Y82.901 E11.90905
G1 X88.236 Y83.328 E11.92411
G1 X88.346 Y83.806 E11.94042
G1 X88.397 Y84.25 E11.95528
G1 X88.411 Y84.511 E11.96398
G1 X88.36 Y95.953 E12.34454
G1 X88.318 Y96.37 E12.35848
G1 X88.143 Y96.896 E12.37692
G1 X87.756 Y97.701 E12.40663
G1 X87.539 Y98.06 E12.42058
G1 X87.329 Y98.304 E12.43129
G1 X87.015 Y98.618 E12.44606
G1 X86.691 Y98.884 E12.46
G1 X86.412 Y99.045 E12.47071
G1 X85.609 Y99.431 E12.50035
G1 X85.216 Y99.576 E12.51428
G1 X84.679 Y99.648 E12.5323
G1 X79.734 Y99.7 E12.69678
G1 X79.317 Y99.664 E12.7107
G1 X78.913 Y99.55 E12.72466
G1 X78.539 Y99.362 E12.73859
G1 X78.207 Y99.106 E12.75253
G1 X77.93 Y98.792 E12.76646
G1 X77.717 Y98.431 E12.7804
G1 X77.577 Y98.036 E12.79434
G1 X77.511 Y97.5 E12.8123
G1 X77.511 Y92.5 E12.9786
G1 X77.551 Y92.083 E12.99253
G1 X77.669 Y91.681 E13.00647
G1 X77.862 Y91.309 E13.02041
G1 X78.121 Y90.98 E13.03433
G1 X78.438 Y90.706 E13.04827
G1 X78.801 Y90.497 E13.0622
G1 X79.01 Y90.425 E13.06955
G1 X79.01 Y89.577 E13.09776
G1 X78.892 Y89.542 E13.10185
G1 X78.52 Y89.349 E13.11579
G1 X78.191 Y89.09 E13.12972
G1 X77.917 Y88.773 E13.14365
G1 X77.708 Y88.41 E13.15758
G1 X77.572 Y88.013 E13.17154
G1 X77.511 Y87.5 E13.18872
G1 X77.511 Y82.5 E13.35503
G1 X77.551 Y82.083 E13.36896
G1 X77.669 Y81.681 E13.38289
G1 X77.862 Y81.309 E13.39683
G1 X78.121 Y80.98 E13.41076
G1 X78.438 Y80.706 E13.42469
G0 F3900 X78.823 Y80.935
G1 F1800 X79.17 Y80.783 E13.43729
G1 X79.711 Y80.7 E13.4555
G1 X84.217 Y80.701 E13.60537
G1 X84.623 Y80.747 E13.61896
G1 X85.487 Y80.947 E13.64846
G1 X85.845 Y81.071 E13.66106
G1 X86.037 Y81.176 E13.66834
G1 X86.415 Y81.413 E13.68317
G1 X86.732 Y81.665 E13.69664
G1 X87.046 Y81.979 E13.71141
G1 X87.298 Y82.296 E13.72488
G1 X87.535 Y82.674 E13.73972
G1 X87.708 Y83.033 E13.75298
G1 X87.858 Y83.46 E13.76803
G1 X87.948 Y83.852 E13.78141
G1 X87.999 Y84.296 E13.79627
G1 X88.011 Y84.509 E13.80337
G1 X87.96 Y95.951 E14.18393
G1 X87.918 Y96.328 E14.19655
G1 X87.782 Y96.723 E14.21044
G1 X87.395 Y97.528 E14.24015
G1 X87.196 Y97.85 E14.25274
G1 X87.046 Y98.021 E14.26031
G1 X86.732 Y98.335 E14.27508
G1 X86.437 Y98.573 E14.28768
G1 X86.239 Y98.684 E14.29523
G1 X85.436 Y99.07 E14.32487
G1 X85.079 Y99.198 E14.33748
G1 X84.675 Y99.248 E14.35102
G1 X79.73 Y99.3 E14.5155
G1 X79.353 Y99.264 E14.5281
G1 X78.991 Y99.15 E14.54072
G1 X78.662 Y98.963 E14.55331
G1 X78.379 Y98.711 E14.56591
G1 X78.155 Y98.405 E14.57852
G1 X78 Y98.059 E14.59113
G1 X77.911 Y97.5 E14.60996
G1 X77.911 Y92.5 E14.77626
G1 X77.951 Y92.123 E14.78887
G1 X78.069 Y91.763 E14.80147
G1 X78.259 Y91.436 E14.81405
G1 X78.514 Y91.155 E14.82667
G1 X78.823 Y90.935 E14.83929
G1 X79.17 Y90.783 E14.85189
G1 X79.41 Y90.746 E14.85996
G1 X79.41 Y89.268 E14.90912
G1 X79.334 Y89.26 E14.91166
G1 X78.974 Y89.142 E14.92426
G1 X78.647 Y88.952 E14.93684
G1 X78.366 Y88.697 E14.94946
G1 X78.146 Y88.388 E14.96208
G1 X77.994 Y88.041 E14.97468
G1 X77.911 Y87.5 E14.99288
G1 X77.911 Y82.5 E15.15918
G1 X77.951 Y82.123 E15.17179
G1 X78.069 Y81.763 E15.18439
G1 X78.259 Y81.436 E15.19697
G1 X78.514 Y81.155 E15.20959
G1 X78.823 Y80.935 E15.22221
G0 F3900 X79.711 Y81.1
G1 F1800 X84.217 Y81.101 E15.37208
G1 X84.533 Y81.137 E15.38266
G1 X85.397 Y81.337 E15.41215
G1 X85.825 Y81.515 E15.42757
G1 X86.203 Y81.752 E15.44241
G1 X86.449 Y81.948 E15.45287
G1 X86.763 Y82.262 E15.46764
G1 X86.959 Y82.508 E15.4781
G1 X87.196 Y82.886 E15.49294
G1 X87.331 Y83.166 E15.50328
G1 X87.481 Y83.593 E15.51833
G1 X87.551 Y83.897 E15.52871
G1 X87.602 Y84.341 E15.54357
G1 X87.611 Y84.507 E15.5491
G1 X87.56 Y95.949 E15.92967
G1 X87.519 Y96.281 E15.9408
G1 X87.422 Y96.55 E15.95031
G1 X87.035 Y97.355 E15.98001
G1 X86.763 Y97.738 E15.99564
G1 X86.449 Y98.052 E16.01041
G1 X86.066 Y98.324 E16.02603
G1 X85.263 Y98.71 E16.05567
G1 X84.946 Y98.818 E16.0668
G1 X84.671 Y98.848 E16.07601
G1 X79.726 Y98.9 E16.24049
G1 X79.394 Y98.864 E16.25159
G1 X79.08 Y98.75 E16.2627
G1 X78.802 Y98.564 E16.27383
G1 X78.575 Y98.319 E16.28494
G1 X78.414 Y98.026 E16.29606
G1 X78.326 Y97.704 E16.30716
G1 X78.311 Y97.5 E16.31396
G1 X78.311 Y92.5 E16.48026
G1 X78.351 Y92.168 E16.49139
G1 X78.468 Y91.856 E16.50247
G1 X78.656 Y91.579 E16.5136
G1 X78.904 Y91.356 E16.5247
G1 X79.198 Y91.197 E16.53581
G1 X79.522 Y91.113 E16.54695
