;FLAVOR:RepRap
;TIME:11365
;Filament used: 10.5965m
;Layer height: 0.2
;Generated with Cura_SteamEngine 2.5.0-ExternalProfiles
M190 S60
M104 S210
M109 S210
G28 ;Home
G1 Z15.0 F6000 ;Move the platform down 15mm
;Prime the extruder
G92 E0
G1 F200 E3
G92 E0
;LAYER_COUNT:30
;LAYER:0
M107
G0 F3900 X56.677 Y54.351 Z0.2
;TYPE:SKIRT
G1 F1800 X56.938 Y54.109 E0.01184
G1 X60.156 Y51.391 E0.15194
G1 X60.439 Y51.174 E0.1638
G1 X63.888 Y48.776 E0.30352
G1 X64.188 Y48.587 E0.31531
G1 X67.841 Y46.524 E0.45484
G1 X68.158 Y46.364 E0.46665
G1 X72.014 Y44.639 E0.60715
G1 X72.345 Y44.51 E0.61897
G1 X76.311 Y43.164 E0.75827
G1 X76.65 Y43.066 E0.77001
G1 X80.753 Y42.087 E0.9103
G1 X81.106 Y42.02 E0.92225
G1 X85.271 Y41.434 E1.06215
G1 X85.625 Y41.401 E1.07397
G1 X89.878 Y41.205 E1.21558
G1 X90.233 Y41.205 E1.22738
G1 X94.363 Y41.401 E1.3649
G1 X94.712 Y41.434 E1.37656
G1 X98.883 Y42.02 E1.51665
G1 X99.234 Y42.086 E1.52853
G1 X103.337 Y43.063 E1.66881
G1 X103.678 Y43.162 E1.68062
G1 X107.644 Y44.508 E1.81992
G1 X107.974 Y44.637 E1.83171
G1 X111.829 Y46.36 E1.97215
G1 X112.147 Y46.52 E1.98399
G1 X115.803 Y48.585 E2.12365
G1 X116.103 Y48.774 E2.13544
G1 X119.55 Y51.171 E2.27508
G1 X119.833 Y51.388 E2.28694
G1 X123.052 Y54.106 E2.42707
G1 X123.312 Y54.347 E2.43886
G1 X126.261 Y57.352 E2.57889
G1 X126.498 Y57.617 E2.59072
G1 X129.15 Y60.88 E2.73057
G1 X129.361 Y61.166 E2.74239
G1 X131.692 Y64.656 E2.88198
G1 X131.874 Y64.958 E2.89371
G1 X133.881 Y68.666 E3.03394
G1 X134.035 Y68.987 E3.04578
G1 X135.677 Y72.845 E3.18524
G1 X135.802 Y73.181 E3.19716
G1 X137.083 Y77.208 E3.33772
G1 X137.174 Y77.547 E3.34939
G1 X138.072 Y81.649 E3.48906
G1 X138.151 Y82.195 E3.5074
G1 X138.149 Y82.746 E3.52573
G1 X138.069 Y83.291 E3.54405
G1 X137.91 Y83.818 E3.56236
G1 X137.676 Y84.317 E3.58069
G1 X137.465 Y84.638 E3.59347
G1 X137.83 Y85.014 E3.6109
G1 X138.154 Y85.46 E3.62923
G1 X138.409 Y85.948 E3.64755
G1 X138.592 Y86.468 E3.66588
G1 X138.697 Y87.009 E3.68421
G1 X138.723 Y87.388 E3.69684
G1 X138.788 Y90.744 E3.80849
G1 X138.787 Y90.954 E3.81547
G1 X138.728 Y92.597 E3.87015
G1 X138.668 Y93.145 E3.88849
G1 X138.53 Y93.679 E3.90683
G1 X138.316 Y94.186 E3.92514
G1 X138.031 Y94.658 E3.94348
G1 X137.68 Y95.083 E3.96181
G1 X137.47 Y95.274 E3.97125
G1 X137.604 Y95.459 E3.97885
G1 X137.859 Y95.947 E3.99716
G1 X138.042 Y96.467 E4.0155
G1 X138.147 Y97.008 E4.03383
G1 X138.173 Y97.558 E4.05214
G1 X138.087 Y98.267 E4.07589
G1 X137.195 Y102.375 E4.21571
G1 X137.105 Y102.715 E4.22741
G1 X135.832 Y106.738 E4.36775
G1 X135.708 Y107.074 E4.37966
G1 X134.067 Y110.949 E4.51963
G1 X133.913 Y111.27 E4.53147
G1 X131.913 Y114.98 E4.67165
G1 X131.73 Y115.284 E4.68345
G1 X129.396 Y118.786 E4.82343
G1 X129.185 Y119.073 E4.83528
G1 X126.534 Y122.341 E4.97524
G1 X126.299 Y122.605 E4.98699
G1 X123.351 Y125.617 E5.12717
G1 X123.089 Y125.861 E5.13908
G1 X119.869 Y128.584 E5.27934
G1 X119.587 Y128.8 E5.29115
G1 X116.137 Y131.204 E5.43101
G1 X115.836 Y131.393 E5.44283
G1 X112.179 Y133.462 E5.58258
G1 X111.861 Y133.623 E5.59444
G1 X108 Y135.352 E5.73514
G1 X107.67 Y135.482 E5.74694
G1 X103.702 Y136.831 E5.88633
G1 X103.362 Y136.929 E5.8981
G1 X99.252 Y137.911 E6.03865
G1 X98.899 Y137.978 E6.0506
G1 X94.735 Y138.564 E6.19046
G1 X94.385 Y138.597 E6.20215
G1 X90.177 Y138.796 E6.34227
G1 X89.818 Y138.796 E6.35421
G1 X85.609 Y138.597 E6.49436
G1 X85.258 Y138.564 E6.50608
G1 X81.094 Y137.978 E6.64594
G1 X80.741 Y137.911 E6.65789
G1 X76.631 Y136.929 E6.79844
G1 X76.291 Y136.831 E6.81021
G1 X72.323 Y135.482 E6.9496
G1 X71.993 Y135.352 E6.9614
G1 X68.132 Y133.623 E7.1021
G1 X67.814 Y133.462 E7.11396
G1 X64.157 Y131.393 E7.25371
G1 X63.856 Y131.204 E7.26553
G1 X60.406 Y128.8 E7.40539
G1 X60.124 Y128.584 E7.4172
G1 X56.904 Y125.861 E7.55746
G1 X56.642 Y125.617 E7.56937
G1 X53.694 Y122.605 E7.70955
G1 X53.459 Y122.341 E7.7213
G1 X50.808 Y119.073 E7.86126
G1 X50.597 Y118.786 E7.87311
G1 X48.263 Y115.284 E8.01309
G1 X48.08 Y114.98 E8.02489
G1 X46.08 Y111.27 E8.16507
G1 X45.926 Y110.949 E8.17691
G1 X44.285 Y107.074 E8.31688
G1 X44.161 Y106.738 E8.32879
G1 X42.888 Y102.715 E8.46913
G1 X42.798 Y102.375 E8.48083
G1 X41.906 Y98.267 E8.62065
G1 X41.828 Y97.722 E8.63896
G1 X41.83 Y97.171 E8.65728
G1 X41.912 Y96.626 E8.67562
G1 X42.072 Y96.099 E8.69393
G1 X42.306 Y95.6 E8.71226
G1 X42.518 Y95.279 E8.72506
G1 X42.158 Y94.909 E8.74223
G1 X41.834 Y94.463 E8.76056
G1 X41.579 Y93.975 E8.77888
G1 X41.396 Y93.455 E8.79721
G1 X41.291 Y92.914 E8.81554
G1 X41.265 Y92.528 E8.82841
G1 X41.206 Y89.2 E8.93912
G1 X41.208 Y88.985 E8.94627
G1 X41.273 Y87.314 E9.00189
G1 X41.334 Y86.767 E9.02019
G1 X41.474 Y86.234 E9.03852
G1 X41.689 Y85.727 E9.05684
G1 X41.976 Y85.256 E9.07518
G1 X42.327 Y84.832 E9.09349
G1 X42.535 Y84.645 E9.10279
G1 X42.403 Y84.464 E9.11025
G1 X42.148 Y83.976 E9.12856
G1 X41.965 Y83.456 E9.14689
G1 X41.86 Y82.915 E9.16522
G1 X41.834 Y82.365 E9.18354
G1 X41.921 Y81.65 E9.20749
G1 X42.818 Y77.549 E9.34712
G1 X42.909 Y77.209 E9.35882
G1 X44.189 Y73.185 E9.49927
G1 X44.314 Y72.848 E9.51123
G1 X45.958 Y68.988 E9.65077
G1 X46.111 Y68.67 E9.66251
G1 X48.113 Y64.966 E9.80255
G1 X48.296 Y64.662 E9.81435
G1 X50.63 Y61.168 E9.9541
G1 X50.841 Y60.882 E9.96592
G1 X53.493 Y57.62 E10.10575
G1 X53.729 Y57.356 E10.11753
G1 X56.677 Y54.351 E10.25754
G0 F3900 X56.963 Y54.631
G1 F1800 X57.196 Y54.415 E10.26811
G1 X60.414 Y51.697 E10.40821
G1 X60.667 Y51.502 E10.41883
G1 X64.116 Y49.104 E10.55855
G1 X64.385 Y48.935 E10.56911
G1 X68.038 Y46.872 E10.70865
G1 X68.322 Y46.729 E10.71922
G1 X72.178 Y45.004 E10.85972
G1 X72.473 Y44.888 E10.87027
G1 X76.439 Y43.542 E11.00957
G1 X76.743 Y43.455 E11.02008
G1 X80.846 Y42.476 E11.16038
G1 X81.161 Y42.416 E11.17104
G1 X85.326 Y41.83 E11.31094
G1 X85.643 Y41.801 E11.32153
G1 X89.896 Y41.605 E11.46313
G1 X90.214 Y41.605 E11.47371
G1 X94.344 Y41.801 E11.61123
G1 X94.656 Y41.83 E11.62165
G1 X98.827 Y42.416 E11.76174
G1 X99.142 Y42.475 E11.7724
G1 X103.245 Y43.452 E11.91268
G1 X103.55 Y43.54 E11.92324
G1 X107.516 Y44.886 E12.06254
G1 X107.81 Y45.002 E12.07305
G1 X111.665 Y46.725 E12.21349
G1 X111.95 Y46.869 E12.22411
G1 X115.606 Y48.934 E12.36377
G1 X115.875 Y49.103 E12.37433
G1 X119.322 Y51.5 E12.51398
G1 X119.574 Y51.693 E12.52453
G1 X122.793 Y54.411 E12.66466
G1 X123.027 Y54.628 E12.67527
G1 X125.976 Y57.633 E12.81531
G1 X126.187 Y57.87 E12.82586
G1 X128.839 Y61.133 E12.96571
G1 X129.028 Y61.389 E12.9763
G1 X131.359 Y64.879 E13.11589
G1 X131.522 Y65.149 E13.12638
G1 X133.529 Y68.857 E13.26661
G1 X133.667 Y69.144 E13.2772
G1 X135.309 Y73.002 E13.41666
G1 X135.421 Y73.302 E13.42731
G1 X136.702 Y77.329 E13.56786
G1 X136.783 Y77.633 E13.57833
G1 X137.681 Y81.735 E13.71799
G1 X137.753 Y82.251 E13.73532
G1 X137.746 Y82.772 E13.75265
G1 X137.659 Y83.286 E13.76999
G1 X137.494 Y83.78 E13.78731
G1 X137.256 Y84.244 E13.80465
G1 X136.949 Y84.665 E13.82198
G1 X136.91 Y84.705 E13.82384
G1 X137.284 Y85.014 E13.83998
G1 X137.63 Y85.404 E13.85732
G1 X137.913 Y85.842 E13.87466
G1 X138.126 Y86.317 E13.89198
G1 X138.263 Y86.82 E13.90932
G1 X138.323 Y87.396 E13.92858
G1 X138.388 Y90.752 E14.04022
G1 X138.387 Y90.94 E14.04647
G1 X138.328 Y92.583 E14.10115
G1 X138.269 Y93.101 E14.11849
G1 X138.132 Y93.604 E14.13583
G1 X137.92 Y94.08 E14.15316
G1 X137.637 Y94.518 E14.17051
G1 X137.291 Y94.907 E14.18782
G1 X136.916 Y95.218 E14.20403
G1 X137.08 Y95.403 E14.21225
G1 X137.363 Y95.841 E14.2296
G1 X137.576 Y96.316 E14.24691
G1 X137.713 Y96.819 E14.26425
G1 X137.772 Y97.337 E14.28159
G1 X137.751 Y97.858 E14.29893
G1 X137.697 Y98.182 E14.30986
G1 X136.805 Y102.29 E14.44967
G1 X136.724 Y102.595 E14.46017
G1 X135.451 Y106.618 E14.60051
G1 X135.34 Y106.918 E14.61115
G1 X133.699 Y110.793 E14.75112
G1 X133.561 Y111.08 E14.76171
G1 X131.561 Y114.79 E14.90189
G1 X131.397 Y115.063 E14.91248
G1 X129.063 Y118.565 E15.05246
G1 X128.874 Y118.821 E15.06304
G1 X126.223 Y122.089 E15.203
G1 X126.013 Y122.325 E15.21351
G1 X123.065 Y125.337 E15.35369
G1 X122.83 Y125.555 E15.36435
G1 X119.61 Y128.278 E15.50461
G1 X119.359 Y128.472 E15.51516
G1 X115.909 Y130.876 E15.65502
G1 X115.639 Y131.045 E15.66561
G1 X111.982 Y133.114 E15.80536
G1 X111.698 Y133.258 E15.81595
G1 X107.837 Y134.987 E15.95666
G1 X107.541 Y135.103 E15.96723
G1 X103.573 Y136.452 E16.10663
G1 X103.269 Y136.54 E16.11715
G1 X99.159 Y137.522 E16.2577
G1 X98.843 Y137.582 E16.2684
G1 X94.679 Y138.168 E16.40826
G1 X94.366 Y138.197 E16.41871
G1 X90.158 Y138.396 E16.55883
G1 X89.836 Y138.396 E16.56954
G1 X85.627 Y138.197 E16.70968
G1 X85.314 Y138.168 E16.72014
G1 X81.15 Y137.582 E16.86
G1 X80.834 Y137.522 E16.8707
G1 X76.724 Y136.54 E17.01124
G1 X76.42 Y136.452 E17.02177
G1 X72.452 Y135.103 E17.16117
G1 X72.156 Y134.987 E17.17174
G1 X68.295 Y133.258 E17.31244
G1 X68.011 Y133.114 E17.32304
G1 X64.354 Y131.045 E17.46279
G1 X64.084 Y130.876 E17.47338
G1 X60.634 Y128.472 E17.61324
G1 X60.383 Y128.278 E17.62379
G1 X57.163 Y125.555 E17.76405
G1 X56.928 Y125.337 E17.77471
G1 X53.98 Y122.325 E17.91489
G1 X53.77 Y122.089 E17.92539
G1 X51.119 Y118.821 E18.06535
G1 X50.93 Y118.565 E18.07594
G1 X48.596 Y115.063 E18.21591
G1 X48.432 Y114.79 E18.2265
G1 X46.432 Y111.08 E18.36669
G1 X46.294 Y110.793 E18.37728
G1 X44.653 Y106.918 E18.51724
G1 X44.542 Y106.618 E18.52788
G1 X43.269 Y102.595 E18.66823
G1 X43.188 Y102.29 E18.67872
G1 X42.296 Y98.182 E18.81854
G1 X42.225 Y97.666 E18.83586
G1 X42.234 Y97.145 E18.85319
G1 X42.322 Y96.631 E18.87054
G1 X42.487 Y96.137 E18.88786
G1 X42.726 Y95.674 E18.90519
G1 X43.033 Y95.253 E18.92252
G1 X43.073 Y95.213 E18.9244
G1 X42.704 Y94.909 E18.94031
G1 X42.358 Y94.519 E18.95765
G1 X42.075 Y94.081 E18.97499
G1 X41.862 Y93.606 E18.9923
G1 X41.725 Y93.103 E19.00964
G1 X41.665 Y92.521 E19.0291
G1 X41.606 Y89.193 E19.13981
G1 X41.608 Y89.001 E19.1462
G1 X41.673 Y87.33 E19.20182
G1 X41.733 Y86.812 E19.21916
G1 X41.871 Y86.31 E19.23648
G1 X42.085 Y85.834 E19.25383
G1 X42.369 Y85.397 E19.27117
G1 X42.716 Y85.009 E19.28848
G1 X43.089 Y84.703 E19.30453
G1 X42.927 Y84.52 E19.31266
G1 X42.644 Y84.082 E19.33
G1 X42.431 Y83.607 E19.34732
G1 X42.294 Y83.104 E19.36466
G1 X42.235 Y82.586 E19.382
G1 X42.256 Y82.065 E19.39934
G1 X42.312 Y81.736 E19.41044
G1 X43.209 Y77.635 E19.55006
G1 X43.29 Y77.33 E19.56056
G1 X44.57 Y73.306 E19.70101
G1 X44.682 Y73.005 E19.71169
G1 X46.326 Y69.145 E19.85123
G1 X46.463 Y68.86 E19.86175
G1 X48.465 Y65.156 E20.00179
G1 X48.629 Y64.884 E20.01235
G1 X50.963 Y61.39 E20.15211
G1 X51.152 Y61.134 E20.16269
G1 X53.804 Y57.872 E20.30251
G1 X54.015 Y57.636 E20.31304
G1 X56.963 Y54.631 E20.45306
G0 F3900 X57.248 Y54.911
G1 F1800 X57.454 Y54.72 E20.4624
G1 X60.672 Y52.002 E20.6025
G1 X60.895 Y51.831 E20.61185
G1 X64.344 Y49.433 E20.75156
G1 X64.582 Y49.284 E20.7609
G1 X68.235 Y47.221 E20.90044
G1 X68.485 Y47.095 E20.90975
G1 X72.341 Y45.37 E21.05025
G1 X72.602 Y45.267 E21.05958
G1 X76.568 Y43.921 E21.19888
G1 X76.836 Y43.844 E21.20815
G1 X80.939 Y42.865 E21.34845
G1 X81.217 Y42.812 E21.35786
G1 X85.382 Y42.226 E21.49776
G1 X85.662 Y42.2 E21.50711
G1 X89.915 Y42.004 E21.64872
G1 X90.195 Y42.004 E21.65803
G1 X94.325 Y42.2 E21.79555
G1 X94.6 Y42.226 E21.80473
G1 X98.771 Y42.812 E21.94483
G1 X99.049 Y42.865 E21.95424
G1 X103.152 Y43.842 E22.09452
G1 X103.421 Y43.919 E22.10383
G1 X107.387 Y45.265 E22.24313
G1 X107.647 Y45.367 E22.25242
G1 X111.502 Y47.09 E22.39286
G1 X111.753 Y47.217 E22.40221
G1 X115.409 Y49.282 E22.54187
G1 X115.647 Y49.431 E22.55121
G1 X119.094 Y51.828 E22.69085
G1 X119.316 Y51.999 E22.70017
G1 X122.535 Y54.717 E22.8403
G1 X122.741 Y54.908 E22.84964
G1 X125.69 Y57.913 E22.98967
G1 X125.877 Y58.122 E22.999
G1 X128.529 Y61.385 E23.13885
G1 X128.696 Y61.611 E23.1482
G1 X131.027 Y65.101 E23.28779
G1 X131.17 Y65.339 E23.29702
G1 X133.177 Y69.047 E23.43726
G1 X133.299 Y69.3 E23.4466
G1 X134.941 Y73.158 E23.58606
G1 X135.04 Y73.424 E23.5955
G1 X136.321 Y77.451 E23.73605
G1 X136.393 Y77.718 E23.74525
G1 X137.291 Y81.82 E23.88491
G1 X137.356 Y82.306 E23.90122
G1 X137.341 Y82.795 E23.91749
G1 X137.248 Y83.275 E23.93375
G1 X137.077 Y83.734 E23.95004
G1 X136.834 Y84.159 E23.96633
G1 X136.525 Y84.539 E23.98262
G1 X136.253 Y84.779 E23.99468
G1 X136.336 Y84.815 E23.99769
G1 X136.748 Y85.08 E24.01398
G1 X137.111 Y85.408 E24.03026
G1 X137.416 Y85.791 E24.04654
G1 X137.654 Y86.219 E24.06283
G1 X137.82 Y86.679 E24.07909
G1 X137.923 Y87.404 E24.10345
G1 X137.988 Y90.76 E24.21509
G1 X137.987 Y90.926 E24.22061
G1 X137.928 Y92.569 E24.27529
G1 X137.871 Y93.055 E24.29157
G1 X137.735 Y93.525 E24.30784
G1 X137.525 Y93.967 E24.32412
G1 X137.245 Y94.369 E24.34041
G1 X136.904 Y94.72 E24.35669
G1 X136.51 Y95.011 E24.37298
G1 X136.263 Y95.138 E24.38222
G1 X136.561 Y95.407 E24.39557
G1 X136.866 Y95.79 E24.41186
G1 X137.104 Y96.218 E24.42814
G1 X137.27 Y96.678 E24.44441
G1 X137.359 Y97.159 E24.46068
G1 X137.368 Y97.649 E24.47698
G1 X137.306 Y98.098 E24.49205
G1 X136.414 Y102.206 E24.63187
G1 X136.342 Y102.474 E24.6411
G1 X135.069 Y106.497 E24.78145
G1 X134.971 Y106.762 E24.79084
G1 X133.33 Y110.637 E24.93081
G1 X133.209 Y110.891 E24.94016
G1 X131.209 Y114.601 E25.08035
G1 X131.064 Y114.841 E25.08967
G1 X128.73 Y118.343 E25.22965
G1 X128.564 Y118.569 E25.23898
G1 X125.913 Y121.837 E25.37894
G1 X125.727 Y122.045 E25.38822
G1 X122.779 Y125.057 E25.52839
G1 X122.572 Y125.25 E25.53781
G1 X119.352 Y127.973 E25.67807
G1 X119.13 Y128.143 E25.68737
G1 X115.68 Y130.547 E25.82722
G1 X115.442 Y130.697 E25.83658
G1 X111.785 Y132.766 E25.97633
G1 X111.534 Y132.893 E25.98569
G1 X107.673 Y134.622 E26.12639
G1 X107.413 Y134.724 E26.13568
G1 X103.445 Y136.073 E26.27508
G1 X103.176 Y136.151 E26.28439
G1 X99.066 Y137.133 E26.42494
G1 X98.787 Y137.186 E26.43438
G1 X94.623 Y137.772 E26.57424
G1 X94.347 Y137.798 E26.58346
G1 X90.139 Y137.997 E26.72358
G1 X89.855 Y137.997 E26.73303
G1 X85.646 Y137.798 E26.87317
G1 X85.37 Y137.772 E26.88239
G1 X81.206 Y137.186 E27.02225
G1 X80.927 Y137.133 E27.0317
G1 X76.817 Y136.151 E27.17225
G1 X76.548 Y136.073 E27.18156
G1 X72.58 Y134.724 E27.32096
G1 X72.32 Y134.622 E27.33025
G1 X68.459 Y132.893 E27.47095
G1 X68.208 Y132.766 E27.48031
G1 X64.551 Y130.697 E27.62006
G1 X64.313 Y130.547 E27.62941
G1 X60.863 Y128.143 E27.76927
G1 X60.641 Y127.973 E27.77857
G1 X57.421 Y125.25 E27.91883
G1 X57.214 Y125.057 E27.92824
G1 X54.266 Y122.045 E28.06842
G1 X54.08 Y121.837 E28.0777
G1 X51.429 Y118.569 E28.21766
G1 X51.263 Y118.343 E28.22699
G1 X48.929 Y114.841 E28.36696
G1 X48.784 Y114.601 E28.37629
G1 X46.784 Y110.891 E28.51647
G1 X46.663 Y110.637 E28.52583
G1 X45.022 Y106.762 E28.66579
G1 X44.924 Y106.497 E28.67519
G1 X43.651 Y102.474 E28.81554
G1 X43.579 Y102.206 E28.82477
G1 X42.687 Y98.098 E28.96458
G1 X42.623 Y97.612 E28.98089
G1 X42.638 Y97.123 E28.99716
G1 X42.733 Y96.643 E29.01343
G1 X42.904 Y96.184 E29.02972
G1 X43.148 Y95.76 E29.046
G1 X43.457 Y95.381 E29.06226
G1 X43.729 Y95.141 E29.07432
G1 X43.652 Y95.108 E29.07711
G1 X43.24 Y94.843 E29.0934
G1 X42.877 Y94.515 E29.10968
G1 X42.572 Y94.132 E29.12596
G1 X42.334 Y93.704 E29.14225
G1 X42.168 Y93.244 E29.15851
G1 X42.079 Y92.763 E29.17478
G1 X42.064 Y92.514 E29.18308
G1 X42.005 Y89.186 E29.29379
G1 X42.007 Y89.016 E29.29944
G1 X42.072 Y87.345 E29.35506
G1 X42.131 Y86.859 E29.37134
G1 X42.268 Y86.39 E29.3876
G1 X42.48 Y85.948 E29.4039
G1 X42.761 Y85.547 E29.42019
G1 X43.103 Y85.197 E29.43646
G1 X43.497 Y84.907 E29.45273
G1 X43.742 Y84.783 E29.46187
G1 X43.446 Y84.516 E29.47512
G1 X43.141 Y84.133 E29.49141
G1 X42.903 Y83.705 E29.5077
G1 X42.737 Y83.245 E29.52396
G1 X42.648 Y82.764 E29.54023
G1 X42.639 Y82.274 E29.55653
G1 X42.702 Y81.821 E29.57174
G1 X43.599 Y77.72 E29.71137
G1 X43.671 Y77.452 E29.7206
G1 X44.951 Y73.428 E29.86105
G1 X45.05 Y73.161 E29.87052
G1 X46.694 Y69.301 E30.01006
G1 X46.815 Y69.051 E30.0193
G1 X48.817 Y65.347 E30.15934
G1 X48.961 Y65.107 E30.16865
G1 X51.295 Y61.613 E30.3084
G1 X51.462 Y61.387 E30.31775
G1 X54.114 Y58.125 E30.45757
G1 X54.3 Y57.916 E30.46688
G1 X57.248 Y54.911 E30.60689
G0 F3900 X57.534 Y55.191
G1 F1800 X57.712 Y55.026 E30.61496
G1 X60.93 Y52.308 E30.75506
G1 X61.124 Y52.159 E30.7632
G1 X64.573 Y49.761 E30.90292
G1 X64.778 Y49.632 E30.91097
G1 X68.431 Y47.569 E31.05051
